src/assets/Twitter.svg

<svg width="71" height="70" viewBox="0 0 70 45" fill="none" xmlns="http://www.w3.org/2000/svg">
<g filter="url(#filter0_d)">
<circle cx="35.4" cy="21.7999" r="16.7999" fill="#F53838"/>
</g>
<path d="M35.4 5C26.1215 5 18.6 12.5215 18.6 21.8C18.6 31.0785 26.1215 38.6 35.4 38.6C44.6785 38.6 52.2 31.0785 52.2 21.8C52.2 12.5215 44.6785 5 35.4 5ZM42.2337 18.762C42.2407 18.9055 42.2425 19.049 42.2425 19.189C42.2425 23.564 38.9157 28.6058 32.8292 28.6058C31.0307 28.6087 29.2697 28.0922 27.7577 27.1183C28.015 27.1498 28.2792 27.162 28.547 27.162C30.0975 27.162 31.5237 26.6353 32.656 25.7463C31.966 25.7327 31.2974 25.5042 30.7434 25.0927C30.1894 24.6811 29.7777 24.107 29.5655 23.4503C30.061 23.5445 30.5715 23.5247 31.0582 23.3925C30.3093 23.2411 29.6358 22.8353 29.152 22.2439C28.6681 21.6526 28.4037 20.9121 28.4035 20.148V20.1078C28.8497 20.3545 29.3607 20.505 29.9032 20.5225C29.2011 20.0551 28.7041 19.3372 28.5138 18.5155C28.3235 17.6938 28.4543 16.8304 28.8795 16.102C29.7106 17.124 30.7472 17.9601 31.922 18.556C33.0968 19.152 34.3836 19.4947 35.6992 19.5618C35.532 18.8518 35.604 18.1065 35.904 17.4416C36.204 16.7768 36.7153 16.2297 37.3584 15.8855C38.0014 15.5412 38.7402 15.419 39.4598 15.5379C40.1794 15.6568 40.8396 16.0102 41.3377 16.543C42.0783 16.3965 42.7884 16.1248 43.4377 15.7398C43.1909 16.5065 42.6742 17.1576 41.9835 17.572C42.6395 17.493 43.28 17.3166 43.884 17.0488C43.4403 17.7136 42.8815 18.2938 42.2337 18.762Z" fill="white"/>
<defs>
<filter id="filter0_d" x="0.600098" y="0" width="69.5999" height="69.5999" filterUnits="userSpaceOnUse" color-interpolation-filters="sRGB">
<feFlood flood-opacity="0" result="BackgroundImageFix"/>
<feColorMatrix in="SourceAlpha" type="matrix" values="0 0 0 0 0 0 0 0 0 0 0 0 0 0 0 0 0 0 127 0"/>
<feOffset dy="13"/>
<feGaussianBlur stdDeviation="9"/>
<feColorMatrix type="matrix" values="0 0 0 0 0.0658854 0 0 0 0 0.0730469 0 0 0 0 0.1375 0 0 0 0.08 0"/>
<feBlend mode="normal" in2="BackgroundImageFix" result="effect1_dropShadow"/>
<feBlend mode="normal" in="SourceGraphic" in2="effect1_dropShadow" result="shape"/>
</filter>
</defs>
</svg>

<svg width="71" height="70" viewBox="0 0 70 45" fill="none" xmlns="http://www.w3.org/2000/svg"><g filter="url(#filter0_d)"><circle cx="35.4" cy="21.8" r="16.8" fill="#F53838"/></g><path d="M35.4 5c-9.278 0-16.8 7.521-16.8 16.8 0 9.278 7.521 16.8 16.8 16.8s16.8-7.522 16.8-16.8C52.2 12.521 44.678 5 35.4 5zm6.834 13.762c.007.143.008.287.008.427 0 4.375-3.326 9.417-9.413 9.417a9.338 9.338 0 01-5.071-1.488c.257.032.521.044.789.044 1.55 0 2.977-.527 4.109-1.416a3.317 3.317 0 01-3.09-2.296 3.325 3.325 0 001.492-.058 3.31 3.31 0 01-2.654-3.244v-.04a3.32 3.32 0 001.5.415 3.307 3.307 0 01-1.024-4.421 9.406 9.406 0 006.82 3.46 3.31 3.31 0 015.638-3.019 6.646 6.646 0 002.1-.803 3.325 3.325 0 01-1.455 1.832 6.65 6.65 0 001.901-.523 6.709 6.709 0 01-1.65 1.713z" fill="#fff"/><defs><filter id="filter0_d" x=".6" y="0" width="69.6" height="69.6" filterUnits="userSpaceOnUse" color-interpolation-filters="sRGB"><feFlood flood-opacity="0" result="BackgroundImageFix"/><feColorMatrix in="SourceAlpha" values="0 0 0 0 0 0 0 0 0 0 0 0 0 0 0 0 0 0 127 0"/><feOffset dy="13"/><feGaussianBlur stdDeviation="9"/><feColorMatrix values="0 0 0 0 0.0658854 0 0 0 0 0.0730469 0 0 0 0 0.1375 0 0 0 0.08 0"/><feBlend in2="BackgroundImageFix" result="effect1_dropShadow"/><feBlend in="SourceGraphic" in2="effect1_dropShadow" result="shape"/></filter></defs></svg>
